dist/images/manual/card1.svg

<svg width="48" height="46" viewBox="0 0 48 46" fill="none" xmlns="http://www.w3.org/2000/svg">
<mask id="mask0_213_712" style="mask-type:alpha" maskUnits="userSpaceOnUse" x="7" y="0" width="32" height="21">
<rect x="7" width="32" height="21" fill="#C4C4C4"/>
</mask>
<g mask="url(#mask0_213_712)">
<path d="M38.4472 5.60821C38.4472 5.60821 38.5149 3.20817 36.1149 2.65655C33.4052 2.03719 30.8309 1.45653 29.5051 1.13717C27.3373 0.633938 26.1954 2.79204 26.1954 2.79204L22.4211 19.1955C22.4211 19.1955 22.2372 20.1827 23.1856 20.4052L33.4923 22.7762C33.4923 22.7762 34.4794 22.9601 34.702 22.0214C34.9245 21.0827 38.4472 5.60821 38.4472 5.60821Z" fill="$yellow" stroke="#5B1A0D" stroke-miterlimit="10"/>
<path d="M30.8504 14.0084C32.7317 14.0084 34.2569 12.4832 34.2569 10.6019C34.2569 8.72052 32.7317 7.19537 30.8504 7.19537C28.969 7.19537 27.4438 8.72052 27.4438 10.6019C27.4438 12.4832 28.969 14.0084 30.8504 14.0084Z" fill="#002E6D"/>
<path d="M36.1508 10.6886L26.0264 8.38019L25.5402 10.5126L35.6646 12.821L36.1508 10.6886Z" fill="#002E6D"/>
<path d="M30.8502 15.7987C33.7203 15.7987 36.047 13.472 36.047 10.6018C36.047 7.73168 33.7203 5.40497 30.8502 5.40497C27.98 5.40497 25.6533 7.73168 25.6533 10.6018C25.6533 13.472 27.98 15.7987 30.8502 15.7987Z" stroke="#002E6D" stroke-width="0.5" stroke-miterlimit="10"/>
<path d="M30.2046 6.08579C30.3389 5.49693 29.7169 4.85293 28.8153 4.64738C27.9138 4.44183 27.0741 4.75257 26.9399 5.34143C26.8056 5.93029 27.4276 6.57428 28.3291 6.77983C29.2307 6.98538 30.0704 6.67465 30.2046 6.08579Z" fill="#002E6D"/>
<path d="M30.3851 3.93402C30.3851 3.93402 29.9109 1.57269 27.4528 1.58237C24.6754 1.58237 22.0334 1.59204 20.6688 1.59204C18.443 1.59204 17.814 3.9437 17.814 3.95337L17.8333 20.7827C17.8333 20.7827 17.8817 21.7892 18.8591 21.7892L29.4271 21.7795C29.4271 21.7795 30.4335 21.7408 30.4335 20.773C30.4335 19.8053 30.3851 3.93402 30.3851 3.93402Z" fill="$yellow" stroke="#5B1A0D" stroke-miterlimit="10"/>
<path d="M24.1043 13.9116C25.9856 13.9116 27.5108 12.3864 27.5108 10.5051C27.5108 8.62372 25.9856 7.09857 24.1043 7.09857C22.2229 7.09857 20.6978 8.62372 20.6978 10.5051C20.6978 12.3864 22.2229 13.9116 24.1043 13.9116Z" fill="#00833E"/>
<path d="M29.2883 9.3971L18.9043 9.42603L18.9104 11.6132L29.2944 11.5842L29.2883 9.3971Z" fill="#00833E"/>
<path d="M24.1041 15.702C26.9742 15.702 29.3009 13.3752 29.3009 10.5051C29.3009 7.63494 26.9742 5.30823 24.1041 5.30823C21.2339 5.30823 18.9072 7.63494 18.9072 10.5051C18.9072 13.3752 21.2339 15.702 24.1041 15.702Z" stroke="#00833E" stroke-width="0.5" stroke-miterlimit="10"/>
<path d="M20.7877 7.35026C21.7124 7.34768 22.4606 6.85599 22.4589 6.25203C22.4572 5.64806 21.7063 5.16055 20.7816 5.16312C19.857 5.1657 19.1088 5.65739 19.1105 6.26135C19.1122 6.86531 19.8631 7.35283 20.7877 7.35026Z" fill="#002E6D"/>
<path d="M21.8301 2.66621C21.8301 2.66621 20.7849 0.498429 18.4042 1.10812C15.7138 1.79523 13.159 2.46298 11.8331 2.79202C9.67504 3.34364 9.64601 5.78239 9.65569 5.78239L13.8461 22.0891C13.8461 22.0891 14.1364 23.0472 15.0848 22.8053L25.3237 20.173C25.3237 20.173 26.2914 19.8826 26.0495 18.9536C25.7979 18.0245 21.8301 2.66621 21.8301 2.66621Z" fill="$yellow" stroke="#5B1A0D" stroke-miterlimit="10"/>
<path d="M17.3689 13.989C19.2503 13.989 20.7754 12.4638 20.7754 10.5825C20.7754 8.70111 19.2503 7.17596 17.3689 7.17596C15.4875 7.17596 13.9624 8.70111 13.9624 10.5825C13.9624 12.4638 15.4875 13.989 17.3689 13.989Z" fill="#5B1A0D"/>
<path d="M22.1158 8.22442L12.063 10.8246L12.6106 12.9419L22.6634 10.3418L22.1158 8.22442Z" fill="#5B1A0D"/>
<path d="M17.3687 15.7793C20.2389 15.7793 22.5656 13.4526 22.5656 10.5824C22.5656 7.71227 20.2389 5.38556 17.3687 5.38556C14.4986 5.38556 12.1719 7.71227 12.1719 10.5824C12.1719 13.4526 14.4986 15.7793 17.3687 15.7793Z" stroke="#5B1A0D" stroke-width="0.5" stroke-miterlimit="10"/>
<path d="M13.374 8.3514C14.2692 8.11987 14.8723 7.45818 14.721 6.87349C14.5698 6.2888 13.7215 6.0025 12.8264 6.23403C11.9312 6.46557 11.3282 7.12725 11.4794 7.71194C11.6306 8.29663 12.4789 8.58293 13.374 8.3514Z" fill="#002E6D"/>
</g>
<path d="M20.4072 40.4592C20.4349 40.4592 20.4533 40.4592 20.481 40.4592C21.2475 40.4222 21.8293 39.7666 21.7923 39.0093L21.423 31.6217C21.386 30.8552 20.7304 30.2734 19.9731 30.3104C19.2067 30.3473 18.6249 31.003 18.6618 31.7602L19.0312 39.1479C19.0589 39.8866 19.6684 40.4592 20.4072 40.4592Z" fill="$red"/>
<path d="M26.8066 40.4591C26.8343 40.4591 26.8528 40.4591 26.8805 40.4591C27.6101 40.4591 28.2288 39.8866 28.2657 39.1386L28.6351 31.751C28.672 30.9845 28.081 30.3381 27.3238 30.3011C26.5573 30.2642 25.9109 30.8552 25.874 31.6124L25.5046 39.0001C25.4492 39.7665 26.0402 40.4222 26.8066 40.4591Z" fill="$red"/>
<path d="M12.5767 39.2772C12.6782 39.9605 13.2693 40.4592 13.9434 40.4592C14.008 40.4592 14.0819 40.45 14.1465 40.4407C14.9038 40.3299 15.4209 39.6188 15.3101 38.8616L14.2019 31.474C14.0911 30.7167 13.3801 30.1996 12.6228 30.3104C11.8656 30.4212 11.3485 31.1323 11.4593 31.8895L12.5767 39.2772Z" fill="$red"/>
<path d="M33.1328 40.4407C33.2067 40.45 33.2714 40.4592 33.336 40.4592C34.0101 40.4592 34.6011 39.9698 34.7027 39.2772L35.8109 31.8895C35.9217 31.1323 35.4045 30.4305 34.6473 30.3104C33.8901 30.1996 33.1882 30.7167 33.0682 31.474L31.96 38.8616C31.8492 39.6281 32.3756 40.3299 33.1328 40.4407Z" fill="$red"/>
<path d="M43.1244 19.2197H42.5149L47.1507 9.18172C47.4739 8.48913 47.1691 7.66725 46.4766 7.34404C45.784 7.02083 44.9621 7.32557 44.6389 8.01816L39.4675 19.2197H7.81146L2.64011 8.01816C2.3169 7.32557 1.49502 7.02083 0.80243 7.34404C0.109838 7.65802 -0.194902 8.48913 0.128307 9.18172L4.76406 19.2197H4.15457C1.8644 19.2197 -0.000976562 21.0851 -0.000976562 23.3752C-0.000976562 25.3145 1.33803 26.949 3.12954 27.4015L6.63867 41.4473C7.30356 44.1253 9.70454 45.9907 12.4657 45.9907H34.8133C37.5744 45.9907 39.9662 44.1253 40.6403 41.4473L44.1494 27.4015C45.9502 26.949 47.28 25.3145 47.28 23.3752C47.28 21.0851 45.4146 19.2197 43.1244 19.2197ZM37.9438 40.7824C37.5837 42.223 36.2908 43.2295 34.8041 43.2295H12.4657C10.9789 43.2295 9.68608 42.223 9.32593 40.7824L6.01996 27.5308H41.259L37.9438 40.7824ZM43.1244 24.7604H4.15457C3.38811 24.7604 2.76939 24.1417 2.76939 23.3752C2.76939 22.6088 3.38811 21.99 4.15457 21.99H43.1244C43.8909 21.99 44.5096 22.6088 44.5096 23.3752C44.5096 24.1417 43.8909 24.7604 43.1244 24.7604Z" fill="#5B1A0D"/>
</svg>

<svg width="48" height="46" fill="none" xmlns="http://www.w3.org/2000/svg"><mask id="a" style="mask-type:alpha" maskUnits="userSpaceOnUse" x="7" y="0" width="32" height="21"><path fill="#C4C4C4" d="M7 0h32v21H7z"/></mask><g mask="url(#a)"><path d="M38.447 5.608s.068-2.4-2.332-2.951c-2.71-.62-5.284-1.2-6.61-1.52-2.168-.503-3.31 1.655-3.31 1.655l-3.774 16.404s-.184.987.765 1.21l10.306 2.37s.987.184 1.21-.755c.223-.938 3.745-16.413 3.745-16.413z" fill="$yellow" stroke="#5B1A0D" stroke-miterlimit="10"/><path d="M30.85 14.008a3.407 3.407 0 1 0 0-6.813 3.407 3.407 0 0 0 0 6.813z" fill="#002E6D"/><path d="M36.15 10.689 26.027 8.38l-.486 2.133 10.125 2.308.486-2.132z" fill="#002E6D"/><path d="M30.85 15.799a5.197 5.197 0 1 0 0-10.394 5.197 5.197 0 0 0 0 10.394z" stroke="#002E6D" stroke-width=".5" stroke-miterlimit="10"/><path d="M30.205 6.086c.134-.59-.488-1.233-1.39-1.439-.901-.205-1.74.106-1.875.694-.134.59.488 1.233 1.39 1.439.9.205 1.74-.105 1.875-.694z" fill="#002E6D"/><path d="M30.385 3.934s-.474-2.361-2.932-2.352c-2.778 0-5.42.01-6.784.01-2.226 0-2.855 2.352-2.855 2.361l.02 16.83s.048 1.006 1.025 1.006l10.568-.01s1.006-.038 1.006-1.006-.048-16.839-.048-16.839z" fill="$yellow" stroke="#5B1A0D" stroke-miterlimit="10"/><path d="M24.104 13.912a3.407 3.407 0 1 0 0-6.814 3.407 3.407 0 0 0 0 6.814z" fill="#00833E"/><path d="m29.288 9.397-10.384.029.006 2.187 10.384-.029-.006-2.187z" fill="#00833E"/><path d="M24.104 15.702a5.197 5.197 0 1 0 0-10.394 5.197 5.197 0 0 0 0 10.394z" stroke="#00833E" stroke-width=".5" stroke-miterlimit="10"/><path d="M20.788 7.35c.924-.002 1.673-.494 1.67-1.098 0-.604-.752-1.091-1.676-1.089-.925.003-1.673.494-1.672 1.098.002.604.753 1.092 1.678 1.09z" fill="#002E6D"/><path d="M21.83 2.666S20.785.498 18.404 1.108c-2.69.687-5.245 1.355-6.57 1.684-2.159.552-2.188 2.99-2.178 2.99l4.19 16.307s.29.958 1.239.716l10.239-2.632s.967-.29.725-1.22c-.251-.928-4.219-16.287-4.219-16.287z" fill="$yellow" stroke="#5B1A0D" stroke-miterlimit="10"/><path d="M17.369 13.989a3.407 3.407 0 1 0 0-6.813 3.407 3.407 0 0 0 0 6.813z" fill="#5B1A0D"/><path d="m22.116 8.224-10.053 2.6.548 2.118 10.052-2.6-.547-2.118z" fill="#5B1A0D"/><path d="M17.369 15.78a5.197 5.197 0 1 0 0-10.394 5.197 5.197 0 0 0 0 10.393z" stroke="#5B1A0D" stroke-width=".5" stroke-miterlimit="10"/><path d="M13.374 8.351c.895-.231 1.498-.893 1.347-1.478-.151-.584-1-.87-1.895-.639-.895.232-1.498.893-1.347 1.478.152.585 1 .87 1.895.64z" fill="#002E6D"/></g><path d="M20.407 40.46h.074a1.383 1.383 0 0 0 1.311-1.45l-.369-7.388a1.383 1.383 0 0 0-2.761.138l.37 7.388a1.367 1.367 0 0 0 1.375 1.311zM26.807 40.46h.074c.73 0 1.348-.573 1.385-1.321l.37-7.388a1.383 1.383 0 0 0-2.761-.139L25.504 39a1.366 1.366 0 0 0 1.302 1.46zM12.577 39.277a1.388 1.388 0 0 0 1.366 1.182 1.388 1.388 0 0 0 1.367-1.598l-1.108-7.387a1.388 1.388 0 0 0-2.743.416l1.118 7.387zM33.133 40.44c.074.01.138.02.203.02a1.38 1.38 0 0 0 1.367-1.183l1.108-7.387a1.393 1.393 0 0 0-1.164-1.58 1.393 1.393 0 0 0-1.579 1.164l-1.108 7.388a1.39 1.39 0 0 0 1.173 1.579z" fill="$red"/><path d="M43.124 19.22h-.61l4.637-10.038a1.384 1.384 0 0 0-2.512-1.164L39.467 19.22H7.812L2.641 8.018A1.384 1.384 0 0 0 .127 9.182L4.764 19.22h-.61A4.162 4.162 0 0 0 0 23.375a4.162 4.162 0 0 0 3.13 4.026l3.51 14.046a5.989 5.989 0 0 0 5.827 4.544h22.347a5.997 5.997 0 0 0 5.827-4.544l3.51-14.046a4.152 4.152 0 0 0 3.13-4.026 4.162 4.162 0 0 0-4.156-4.155zm-5.18 21.562a3.231 3.231 0 0 1-3.14 2.448H12.466a3.231 3.231 0 0 1-3.14-2.448L6.02 27.531h35.239l-3.315 13.251zm5.18-16.022H4.154a1.383 1.383 0 0 1-1.385-1.385c0-.766.62-1.385 1.386-1.385h38.97c.766 0 1.385.619 1.385 1.385 0 .767-.62 1.385-1.386 1.385z" fill="#5B1A0D"/></svg>
